X:2700
T:Humours of Drinagh, The
O:england
R:jig
D:Stockton's Wing
M:6/8
L:1/8
K:D
FDF ABc|dfd ecA|FDF ABc|dAF ~G3|
FDF ABc|dfd ecA|~f3 gec|1 edc dAG:|2 edc d2e||
|:~f3 ~g3|agf gfe|~f3 ~g3|agf g2e|
agf gfe|fed ecA|~f3 gec|1 edc d2e:|2 edc dAG|
"Version of 1st part:"
|FDF ABc|dfd ecA|FDF AB=c|BAF ~G3|
FDF ABc|dfd ecA|~f3 gec|1 edc dAG:|2 edc d2e||


